X: 1
T: da Walk ta Woodwick
C: Debbie Scott
R: reel
S: handwritten page in the Concord Slow Scottish Session collection
Z: 2019 John Chambers <jc:trillian.mit.edu>
M: C|
L: 1/8
K: Bb
|:\
"Bb"BFBd "F7"ceAc | "Bb"BABc dBF2 |\
"Eb"EDEG "C7"=EDEG | "F"F=EFG ABcA ||\
"Bb"BFBd "D7"ceAc | "Gm"BABc "Bb7"dBF2 |
"Eb"EDEG "D7"^FADF |[1 "Gm"G4 "F"F2GA :|\
[2 "Gm"G4 "F"F3B |]| "F"AFcc AFFA |\
"Bb"BFBd "Bb7"f3f | "Eb"gefd "Cm"ecdB |
"C7"cBAG "F"AFFc || "F"AFcc AFFA |\
"Bb"BFBd "Bb7"f3f | "Eb"gefd "Cm"ecdB |\
"F"AFAc "Bb"B2"G#dim"cB |]| "F"AFcc AFFA |
"Bb"BFBd "Bb7"f3f | "Eb"gefd "Cm"ecdB |\
"C7"cBAG "F"AFEC || "Bb"BFBd "D7"ceAc |\
"Gm"BABc "Bb7"dBF2 | "Eb"EDEG "D7"^FADF | "Gm"G8 |]
